symbols/web/add_road/materialsymbolsrounded/add_road_wght500_24px.svg

<svg xmlns="http://www.w3.org/2000/svg" height="24" width="24"><path d="M18.95 23.05q-.475 0-.8-.325-.325-.325-.325-.825v-1.725H16.1q-.5 0-.825-.325-.325-.325-.325-.8 0-.475.325-.813.325-.337.825-.337h1.725v-1.725q0-.475.325-.8.325-.325.8-.325.475 0 .813.325.337.325.337.8V17.9h1.725q.475 0 .8.337.325.338.325.813 0 .475-.325.8-.325.325-.8.325H20.1V21.9q0 .5-.337.825-.338.325-.813.325Zm0-9.9q-.475 0-.8-.338-.325-.337-.325-.812V4.95q0-.475.325-.8.325-.325.8-.325.475 0 .813.325.337.325.337.8V12q0 .475-.337.812-.338.338-.813.338ZM4.575 20.175q-.475 0-.8-.325-.325-.325-.325-.8V4.95q0-.475.325-.8.325-.325.8-.325.5 0 .825.325.325.325.325.8v14.1q0 .475-.325.8-.325.325-.825.325ZM11.775 8q-.475 0-.812-.325-.338-.325-.338-.825v-1.9q0-.475.338-.8.337-.325.812-.325.475 0 .8.325.325.325.325.8v1.9q0 .5-.325.825-.325.325-.8.325Zm0 6.1q-.475 0-.812-.338-.338-.337-.338-.812v-1.9q0-.475.338-.813.337-.337.812-.337.475 0 .8.337.325.338.325.813v1.9q0 .475-.325.812-.325.338-.8.338Zm0 6.075q-.475 0-.812-.325-.338-.325-.338-.8v-1.9q0-.5.338-.825.337-.325.812-.325.475 0 .8.325.325.325.325.825v1.9q0 .475-.325.8-.325.325-.8.325Z"/></svg>

<svg xmlns="http://www.w3.org/2000/svg" height="24" width="24"><path d="M18.95 23.05Q18.475 23.05 18.15 22.725Q17.825 22.4 17.825 21.9V20.175H16.1Q15.6 20.175 15.275 19.85Q14.95 19.525 14.95 19.05Q14.95 18.575 15.275 18.237Q15.6 17.9 16.1 17.9H17.825V16.175Q17.825 15.7 18.15 15.375Q18.475 15.05 18.95 15.05Q19.425 15.05 19.763 15.375Q20.1 15.7 20.1 16.175V17.9H21.825Q22.3 17.9 22.625 18.237Q22.95 18.575 22.95 19.05Q22.95 19.525 22.625 19.85Q22.3 20.175 21.825 20.175H20.1V21.9Q20.1 22.4 19.763 22.725Q19.425 23.05 18.95 23.05ZM18.95 13.15Q18.475 13.15 18.15 12.812Q17.825 12.475 17.825 12V4.95Q17.825 4.475 18.15 4.15Q18.475 3.825 18.95 3.825Q19.425 3.825 19.763 4.15Q20.1 4.475 20.1 4.95V12Q20.1 12.475 19.763 12.812Q19.425 13.15 18.95 13.15ZM4.575 20.175Q4.1 20.175 3.775 19.85Q3.45 19.525 3.45 19.05V4.95Q3.45 4.475 3.775 4.15Q4.1 3.825 4.575 3.825Q5.075 3.825 5.4 4.15Q5.725 4.475 5.725 4.95V19.05Q5.725 19.525 5.4 19.85Q5.075 20.175 4.575 20.175ZM11.775 8Q11.3 8 10.963 7.675Q10.625 7.35 10.625 6.85V4.95Q10.625 4.475 10.963 4.15Q11.3 3.825 11.775 3.825Q12.25 3.825 12.575 4.15Q12.9 4.475 12.9 4.95V6.85Q12.9 7.35 12.575 7.675Q12.25 8 11.775 8ZM11.775 14.1Q11.3 14.1 10.963 13.762Q10.625 13.425 10.625 12.95V11.05Q10.625 10.575 10.963 10.237Q11.3 9.9 11.775 9.9Q12.25 9.9 12.575 10.237Q12.9 10.575 12.9 11.05V12.95Q12.9 13.425 12.575 13.762Q12.25 14.1 11.775 14.1ZM11.775 20.175Q11.3 20.175 10.963 19.85Q10.625 19.525 10.625 19.05V17.15Q10.625 16.65 10.963 16.325Q11.3 16 11.775 16Q12.25 16 12.575 16.325Q12.9 16.65 12.9 17.15V19.05Q12.9 19.525 12.575 19.85Q12.25 20.175 11.775 20.175Z"/></svg>
